!!!COM:	Martini, Johannes
!!!CDT:	~1440///-~1497//
!!!OTL:	Notus in Judea deus
!!!AGN:	Motet
!!!SCT:	Mar2078
!!!SCA:	Mar2078
!!!voices:	3
**kern	**kern	**kern
*staff3	*staff2	*staff1
*Ivox	*Ivox	*Ivox
*I"Tenor	*I"Faulx bourdon	*I"Superius
*I'T	*I'Fb	*I'S
*>[A,B,C,D,E,F,G,H,I,J,K,L]	*>[A,B,C,D,E,F,G,H,I,J,K,L]	*>[A,B,C,D,E,F,G,H,I,J,K,L]
*>A	*>A	*>A
*clefGv2	*clefG2	*clefG2
*k[]	*k[]	*k[]
*M2/1	*M2/1	*M2/1
*met(C)	*met(C)	*met(C)
=1-	=1-	=1-
!!LO:TX:Z=8:t=Choir 1
!!section: In Israel magnum
!!!OMD: In Israel magnum
1c	1g	1cc
2e\	2g/	2cc\
2e\	2g/	2cc\
=2	=2	=2
1e	1g	1cc
1d	1f	1b
=3	=3	=3
2c\	2e/	2a/
2B\	2d/	2g/
2c\	2e/	2a/
[2d\	[2f/	[2b\
=4	=4	=4
4d\]	2f/]	2b\]
4c\	.	.
4B\	1e	1a
4A/	.	.
1B	.	.
.	2d/	2g#i/
=5	=5	=5
0Al	0el	0al
=6||	=6||	=6||
*>B	*>B	*>B
!!section: Et factus
!!!OMD: Et factus
!!LO:TX:Z=8:t=Choir 2
1c	1c	1cc
2A/	2e/	2cc\
2A/	2e/	2cc\
=7	=7	=7
1A	1f	1cc
1G	1g	1b
=8	=8	=8
1A	1f	1a
2c\	2e/	2g/
2A/	2f/	2a/
=9	=9	=9
2G/	2g/	2b\
2c\	2e/	1cc
1G	1d	.
.	.	2b\
=10	=10	=10
1C	1c	1cc
1r	1r	1r
=11	=11	=11
1c	1e	1cc
2A/	2f/	2cc\
2A/	2f/	2cc\
=12	=12	=12
2G/	2g/	2b\
2G/	2g/	2b\
1A	1c	1cc
=13	=13	=13
1G	1d	1b
2A/	2.c/	2.a/
[2F/	.	.
.	4B/	4g/
=14	=14	=14
4F/]	2c/	2a/
4E/	.	.
2D/	1d	1b
2G/	.	.
2A/	2c/	[2a/
=15	=15	=15
1E	1B	2a/]
.	.	2g#i/
1Al	1Al	1al
=16||	=16||	=16||
*>C	*>C	*>C
!!section: Ibi confregit
!!!OMD: Ibi confregit
!!LO:TX:Z=8:t=Faulx bourdon
!!LO:TX:Z=8:t=Choir 1
1c	1g	1cc
1e	1g	1cc
=17	=17	=17
1d	1f	1b
1c	1e	1a
=18	=18	=18
2B\	2d/	2g/
2c\	2e/	2a/
2d\	2f/	2b\
2e\	[2g/	[2cc\
=19	=19	=19
1d	2g/]	2cc\]
.	2f/	2b\
1c	1g	1cc
=20	=20	=20
1r	1r	1r
1c	1g	1cc
=21	=21	=21
1c	1g	1cc
1d	1f	1b
=22	=22	=22
1e	1g	1cc
2d\	2f/	2b\
2c\	2e/	2a/
=23	=23	=23
2d\	2f/	2b\
1e	1g	1cc
4d\	4f/	4b\
4c\	4e/	4a/
=24	=24	=24
2B\	2d/	2g/
2A/	1e	1a
1B	.	.
.	2d/	2g#i/
=25	=25	=25
0Al	0el	0al
=26||	=26||	=26||
*>D	*>D	*>D
!!section: Illuminans tu
!!!OMD: Illuminans tu
!!LO:TX:Z=8:t=Choir 2
1c	1c	1cc
2A/	2e/	2cc\
2A/	2e/	2cc\
=27	=27	=27
1A	1f	1cc
1G	1g	1b
=28	=28	=28
2G/	2g/	2b\
2G/	2g/	2b\
2G/	2g/	2b\
2G/	2g/	2b\
=29	=29	=29
1A	1c	1cc
1G	1d	1b
=30	=30	=30
1F	1f	1a
2c\	2e/	2g/
2A/	2f/	2a/
=31	=31	=31
2G/	2g/	2b\
2c\	1e	1cc
1A	.	.
.	4d/	4b\
.	4c/	4a/
=32	=32	=32
1G	1d	1b
1C	1c	1cc
=33	=33	=33
1r	1r	1r
1c	1e	1cc
=34	=34	=34
2A/	2e/	2cc\
2A/	2e/	2cc\
2A/	1e	1cc
2c\	.	.
=35	=35	=35
1G	1d	1b
1A	1c	1cc
=36	=36	=36
1E	1e	1cc
1G	1d	1b
=37	=37	=37
2A/	2.c/	2.a/
1F	.	.
.	4B/	4g/
.	2c/	2a/
2D/	[2d/	[2b\
=38	=38	=38
2G/	2d/]	2b\]
2A/	2c/	1a
1E	1B	.
.	.	2g#i/
=39	=39	=39
0Al	0Al	0al
=40||	=40||	=40||
*>E	*>E	*>E
!!section: Dormierunt sompnum
!!!OMD: Dormierunt sompnum
!!LO:TX:Z=8:t=Faulx bourdon
!!LO:TX:Z=8:t=Choir 1
1c	1g	1cc
2c\	2g/	2cc\
2c\	2g/	2cc\
=41	=41	=41
1e	1g	1cc
2d\	2f/	2b\
[2e\	2e/	2a/
=42	=42	=42
2e\]	2d/	2g/
4d\	1g	1cc
4c\	.	.
1d	.	.
.	2f/	2b\
=43	=43	=43
1c	1g	1cc
1r	1r	1r
=44	=44	=44
1c	2g/	2cc\
.	2g/	2cc\
2e\	2g/	2cc\
2e\	2g/	2cc\
=45	=45	=45
2e\	2g/	2cc\
2e\	2g/	2cc\
2c\	1g	1cc
[2e\	.	.
=46	=46	=46
2e\]	2f/	2b\
4d\	2e/	2a/
4c\	.	.
1d	1f	1b
=47	=47	=47
1c	1g	1cc
2c\	2g/	2cc\
2c\	2g/	2cc\
=48	=48	=48
2e\	1g	1cc
2e\	.	.
1e	1g	1cc
=49	=49	=49
2e\	2g/	2cc\
2d\	2f/	2b\
2c\	2e/	2a/
[2d\	[2f/	[2b\
=50	=50	=50
2d\]	2f/]	2b\]
2c\	1e	1a
1B	.	.
.	2d/	2g#i/
=51	=51	=51
0Al	0el	0al
=52||	=52||	=52||
*>F	*>F	*>F
!!LO:TX:Z=8:t=Choir 2
!!section: Ab increpatione
!!!OMD: Ab increpatione
1c	1c	1cc
1A	1e	1cc
=53	=53	=53
2A/	2e/	2cc\
2A/	2e/	2cc\
2A/	2e/	2cc\
2A/	2e/	2cc\
=54	=54	=54
1A	1f	1cc
2G/	2g/	2b\
2A/	2f/	2a/
=55	=55	=55
2c\	2e/	2g/
2A/	2c/	1cc
1G	1d	.
.	.	2b\
=56	=56	=56
1C	1c	1cc
1r	1r	1r
=57	=57	=57
2c\	2e/	2cc\
2c\	2e/	2cc\
2A/	2e/	2cc\
2A/	2e/	2cc\
=58	=58	=58
1A	1c	1cc
2G/	2d/	2b\
2A/	2c/	2a/
=59	=59	=59
2G/	2d/	2b\
1E	1e	1cc
2F/	4d/	4b\
.	4c/	4a/
=60	=60	=60
2G/	2B/	2g/
2F/	2A/	1a
1E	1B	.
.	.	2g#i/
=61	=61	=61
0Al	0Al	0al
=62||	=62||	=62||
*>G	*>G	*>G
!!LO:TX:Z=8:t=Faulx bourdon
!!LO:TX:Z=8:t=Choir 1
!!section: Tu terribilis est
!!!OMD: Tu terribilis est
1c	1g	1cc
2e\	2g/	2cc\
2e\	2g/	2cc\
=63	=63	=63
2e\	2g/	2cc\
2e\	2g/	2cc\
1e	1g	1cc
=64	=64	=64
1d	1f	1b
1c	1e	1a
=65	=65	=65
2B\	2d/	2g/
2c\	2e/	2a/
2d\	2f/	2b\
2e\	[2g/	[2cc\
=66	=66	=66
1d	2g/]	2cc\]
.	2f/	2b\
1c	1g	1cc
=67	=67	=67
1r	1r	1r
1e	1g	1cc
=68	=68	=68
1e	1g	1cc
1d	1f	1b
=69	=69	=69
2e\	2g/	2cc\
2.f\	2.a/	2.dd\
4e\	4g/	4cc\
4d\	4f/	4b\
4c\	4e/	4a/
=70	=70	=70
2B\	2d/	2g/
2A/	1e	1a
1B	.	.
.	2d/	2g#i/
=71	=71	=71
0Al	0el	0al
=72||	=72||	=72||
*>H	*>H	*>H
!!section: De celo auditum
!!!OMD: De celo auditum
!!LO:TX:Z=8:t=Choir 2
1c	1e	1cc
1A	1e	1cc
=73	=73	=73
1c	1e	1cc
2G/	2d/	2b\
2G/	2d/	2b\
=74	=74	=74
1G	1d	1b
2A/	2f/	2a/
2G/	2g/	2b\
=75	=75	=75
2A/	2e/	2cc\
1F	1f	1dd
2C/	2e/	[2cc\
=76	=76	=76
1G	1d	2cc\]
.	.	2b\
1C	1c	1cc
=77	=77	=77
1r	1r	1r
1c	1e	1cc
=78	=78	=78
1A	1e	1cc
2A/	2e/	2cc\
2A/	2e/	2cc\
=79	=79	=79
1A	1e	1cc
2.D/	1d	1b
4E/	.	.
=80	=80	=80
1F	2.A/	2.a/
.	4B/	4g/
2G/	2c/	2a/
2D/	[2d/	[2b\
=81	=81	=81
2G/	2d/]	2b\]
2A/	2c/	1a
1E	1B	.
.	.	2g#i/
=82	=82	=82
0Al	0Al	0al
=83||	=83||	=83||
*>I	*>I	*>I
!!LO:TX:Z=8:t=Faulx bourdon
!!section: Cum exurgeret
!!!OMD: Cum exurgeret
!!LO:TX:Z=8:t=Choir 1
1c	1g	1cc
1e	2g/	2cc\
.	2g/	2cc\
=84	=84	=84
2e\	2g/	2cc\
2e\	2g/	2cc\
1e	1g	1cc
=85	=85	=85
1d	1f	1b
1c	1e	1a
=86	=86	=86
2B\	2d/	2g/
2c\	2e/	2a/
2d\	2f/	2b\
2c\	[2g/	[2cc\
=87	=87	=87
1d	2g/]	2cc\]
.	2f/	2b\
1c	1g	1cc
=88	=88	=88
1r	1r	1r
1c	1g	1cc
=89	=89	=89
2e\	2g/	2cc\
2e\	2g/	2cc\
2e\	2g/	2cc\
2e\	2g/	2cc\
=90	=90	=90
1e	1g	1cc
1e	1g	1cc
=91	=91	=91
2d\	2f/	2b\
2c\	2e/	2a/
2d\	2f/	2b\
[2e\	[2g/	[2cc\
=92	=92	=92
2e\]	2g/]	2cc\]
4d\	4f/	4b\
4c\	4e/	4a/
2B\	2d/	2g/
2A/	[2e/	[2a/
=93	=93	=93
1B	2e/]	2a/]
.	2d/	2g#i/
1Al	1el	1al
=94||	=94||	=94||
*>J	*>J	*>J
!!section: Quoniam cogitatio
!!!OMD: Quoniam cogitatio
!!LO:TX:Z=8:t=Choir 2
2c\	2e/	2cc\
2c\	2e/	2cc\
1A	1e	1cc
=95	=95	=95
2F/	2f/	2cc\
2F/	2f/	2cc\
2F/	2f/	2cc\
2F/	2f/	2cc\
=96	=96	=96
1A	1f	1cc
2G/	2g/	2b\
2G/	2g/	2b\
=97	=97	=97
1G	1g	1b
1A	1c	1cc
=98	=98	=98
4D/	2d/	2b\
4E/	.	.
2F/	2c/	2a/
2G/	2B/	2g/
2A/	2c/	[2cc\
=99	=99	=99
1G	1d	2cc\]
.	.	2b\
1A	1c	1cc
=100	=100	=100
1r	1r	1r
2A/	2e/	2cc\
2A/	2e/	2cc\
=101	=101	=101
2A/	2e/	2cc\
2A/	2e/	2cc\
1A	1f	1cc
=102	=102	=102
1G	1g	1b
2G/	2g/	2b\
2G/	2g/	2b\
=103	=103	=103
2G/	2e/	2b\
2G/	2e/	2b\
1G	1d	1b
=104	=104	=104
2A/	1.c	2cc\
2A/	.	2cc\
1A	.	1cc
.	2c/	.
=105	=105	=105
1G	1d	1b
2F/	2.A/	2.a/
[2A/	.	.
.	4B/	4g/
=106	=106	=106
2A/]	2c/	2a/
1G	1d	1b
2A/	2c/	[2a/
=107	=107	=107
1E	1B	2a/]
.	.	2g#i/
1Al	1Al	1al
=108||	=108||	=108||
*>K	*>K	*>K
!!LO:TX:Z=8:t=Faulx bourdon
!!section: Vovete et reddite
!!!OMD: Vovete et reddite
!!LO:TX:Z=8:t=Choir 1
1c	2g/	2cc\
.	2g/	2cc\
2e\	1g	1cc
2e\	.	.
=109	=109	=109
1e	1g	1cc
2e\	2g/	2cc\
2e\	2g/	2cc\
=110	=110	=110
1e	1g	1cc
2d\	2f/	2b\
2c\	2e/	2a/
=111	=111	=111
2B\	2d/	2g/
2c\	2e/	2a/
2d\	2f/	2b\
2c\	[2g/	[2cc\
=112	=112	=112
1d	2g/]	2cc\]
.	2f/	2b\
1c	1g	1cc
=113	=113	=113
1r	1r	1r
1c	1g	1cc
=114	=114	=114
1c	1g	1cc
1e	1g	1cc
=115	=115	=115
2e\	2g/	2cc\
2e\	2g/	2cc\
2e\	2g/	2cc\
2e\	2g/	2cc\
=116	=116	=116
1e	1g	1cc
1d	1f	1b
=117	=117	=117
1c	1e	1a
1B	1d	1g
=118	=118	=118
2c\	2e/	2a/
1d	1f	1b
2c\	[2e/	[2a/
=119	=119	=119
1B	2e/]	2a/]
.	2d/	2g#i/
1Al	1el	1al
=120||	=120||	=120||
*>L	*>L	*>L
!!section: Terribili et
!!!OMD: Terribili et
!!LO:TX:Z=8:t=Choir 2
1c	1e	1cc
2A/	2e/	2cc\
2A/	2e/	2cc\
=121	=121	=121
1A	1e	1cc
2A/	2f/	2cc\
2A/	2f/	2cc\
=122	=122	=122
1A	1f	1cc
1G	1g	1b
=123	=123	=123
1G	1g	1b
1A	1f	1a
=124	=124	=124
2c\	2e/	2g/
2A/	2f/	2a/
2G/	2g/	2b\
2c\	2e/	[2cc\
=125	=125	=125
1G	1d	2cc\]
.	.	2b\
1A	1c	1cc
=126	=126	=126
1r	1r	1r
1A	1e	1cc
=127	=127	=127
2A/	2e/	2cc\
2A/	2e/	2cc\
1A	1e	1cc
=128	=128	=128
1A	1c	1cc
1G	1d	1b
=129	=129	=129
1A	2.c/	2.a/
.	4B/	4g/
2F/	2c/	2a/
2D/	[2d/	[2b\
=130	=130	=130
2G/	2d/]	2b\]
2A/	2c/	1a
1E	1B	.
.	.	2g#i/
=131	=131	=131
0Al	0Al	0al
==	==	==
*-	*-	*-
!!!RDF**kern: l=long note in original notation
!!!RDF**kern: i=editorial accidental
!!!ENC:	Chris Gage 08-07-2014
!!!END:	2014/10/09/
!!!EED:	Jesse Rodin
!!!EEV:	2014/10/18/
!!!ONB:	Translated from MusicXML and edited on 2014/10/18/ by Craig Sapp
!!muse2ps: C^@{COM}^i2I150v85,85,150Q16
